X:102
T:Vevlire-ettan
R:Slängpolska
Z:Erik Ronström 2008-04-20
O:Fleringe, Gotland
B:Gutalåtar nr 102
D:  Garizim spelar live (Kallas här "Groddapolskan")
M:3/4
L:1/8
K:G
GF GA AB|BG AB c2|BA BG Bd|e/d/c/B/ A2 A2|
GF GA AB|BG AB c2|BA Bc dc|BA G2 z2:|
|:Bc de ed|cB cd dc|BA BG Bd|e/d/c/B/ A2 A2|
GF GA AB|BG AB c2|BA Bc dc|BA G2 z2:|

